X: 731
P: Longways for as many as will
M: C|
L: 1/8
K: Gm
d2 d2 d2 d2 | e4 c4 | d2 (cB) A2 d2 | B2 G2 G2 Bc |\
d2 d2 d2 d2 | e4 c4 | d4 cB (AB) (AG) | G6 :|
ef |\
g2 g2 g2 d2 | e4 c4 | f2 f2 fg fe | d6 ef |\
g2 G2 G2 g2 | f2 F2 F2 fe | d2 e2 c3 B | B6 de |\
f2 f2 f2 f2 | ^f2 f2 f2 f2 |
g2 g2 (g3 f/g/) | a2 a2 a2 a2 |\
b2 b^f g2 a2 | ^f6 ga | b2 B2 B2 b2 | a2 A2 A2 a2 |\
g2 G2 G2 g2 | ^f2 g2 g3 ^f | g6 |]

